X:1
T:Something Doing
T:“Something Doing.”
T:SCOTT    JOPLIN SCOTT   HAYDEN
T:A  RAGTIME  TWO  STEP
T:Public Domain
T:Public Domain
T:Public Domain
T:Public Domain
T:Public Domain
C:By SCOTT JOPLIN
C:and SCOTT HAYDEN
Z:Public Domain
%%score { ( 1 4 ) | ( 2 3 ) }
L:1/8
Q:1/4=72
M:2/4
K:F
V:1 treble nm="Piano"
V:4 treble 
V:2 bass 
V:3 bass 
V:1
"^Not fast.""^Intro." (F/G/) | A/fe/- e2 | d/^c/d/B/- B2 | B/A/B/G/- G/A/B/=B/ | %4
 c z !^![cegc'] z |:!f! A/c/f/a/- a/f/c/A/ | [ce][Bd] [Ac]2 | %7
 [Bb]/e/g/[Bb]/- [Bb]/[eg]/[=B=b]/[cc']/- | [cc']/(c'/a/f/ d/_d/c/B/) | A/c/f/a/- a/f/c/A/ | %10
 [ce][Bd] [Ac][Aa] | [Gg]/c/e/[cd^fa]/- [cdfa]/[cdfa]/[d=f=b] | [cec']2- [cec'] z | %13
 A/c/f/a/- a/f/c/A/ | [ce][Bd] [Ac]2 | [Bb]/e/g/[Bb]/- [Bb]/[eg]/[=B=b]/[cc']/- | %16
 [cc']/(c'/a/f/ d/_d/c) | [dd']/b/c'/[ee']/- [ee']/b/[dd'] | %18
 [cc']/[fa]/[dd']/[cc']/- [cc']/a/f/^F/ | G/c^F/ G/[GBg][=FA=f]/- |1 [FAf]2- [FAf] z :|2 %21
 ((([FAf] (c/)))d/ e/f/g/a/) |: [Bb]/e/g/[Bea]/- [Bea]/e/[Bg] | G/^F/G/d/- d/c/G/^G/ | %24
 (A/C/D/^D/ E/F/G/^G/) | A/^G/A/[Ac=g]/- [Acg]/f/=G/A/ | z/ (c'/b/g/ e<c') | %27
 B/A/B/[Bea]/- [Bea]/g/e/c/ | z/ (c'/a/f/ d<c) | A/^G/A/[Ac=g]/- [Acg]/f/c/A/ | %30
 d/^f/a/[dd']/- [dd']/c'/a/f/ | d/^f/a/[dd']/- [dd']/c'/a/f/ | d/^c/d/_e/ d/=c/B/A/ | %33
 B/G/B/d/ g z | d/^c/d/a/- a/g/f/d/ | A/^G/A/d/- d/c/F/^F/ | G/c^F/ G/[GBg][=FA=f]/- |1 %37
 [FAf] (c/d/ e/f/g/a/) :|2 [FAf]2- [FAf] z ||!f! A/c/f/a/- a/f/c/A/ | [ce][Bd] [Ac]2 | %41
 [Bb]/e/g/[Bb]/- [Bb]/[eg]/[=B=b]/[cc']/- | [cc']/(c'/a/f/ d/_d/c/B/) | A/c/f/a/- a/f/c/A/ | %44
 [ce][Bd] [Ac][Aa] | [Gg]/c/e/[cd^fa]/- [cdfa]/[cdfa]/[d=f=b] | [cec']2- [cec'] z | %47
 A/c/f/a/- a/f/c/A/ | [ce][Bd] [Ac]2 | [Bb]/e/g/[Bb]/- [Bb]/[eg]/[=B=b]/[cc']/- | %50
 [cc']/(c'/a/f/ d/_d/c) | [dd']/b/c'/[ee']/- [ee']/b/[dd'] | %52
 [cc']/[fa]/[dd']/[cc']/- [cc']/a/f/^F/ | G/c^F/ G/[GBg][=FA=f]/- | [FAf]2- [FAf] z |: %55
[K:Bb]!p! f/=e/f/g/- g/f/c/d/ | e/d/e/A/- A2 | A/^G/A/d/- d/c/=G/A/ | B/A/B/G/- Gd | cB A^G | %60
 A/f/e/c/ Ae | dc GA | B/f/d/B/ G2 | f/=e/f/g/- g/f/c/d/ | e/d/e/A/- A2 | A/^G/A/d/- d/c/=G/A/ | %66
 B/A/B/G/- G2 | [Ge][GB] [Bc][B^c] | d/^c/d/g/- g/f/d/B/ | G/^G/A/[Af]/- [Af]/e/=G/A/ | B2- Bf :: %71
!f! [Bdb]/(B/c/^c/) d/ag/ | fA/[ce]/- [ce]>[Bdb]- | [Bdb]/B/c/^c/ d/ag/ | fA/[ce]/- [ce]>[G=Bdg]- | %75
 [GBdg]/G/=B/d/ g/f[Gce]/- | [Gce][FG=Bd] [EGc]2 | [=EBd][EBc] [Bd][Bc] | %78
 [A_eg][Aef] [ead'][eac'] | [db]/(B/c/^c/ d/)ag/ | fA/[ce]/- [ce]>[Bdb]- | [Bdb]/B/c/^c/ d/ag/ | %82
 fA/[ce]/- [ce]>[G=Bdg]- | [GBdg]/G/=B/d/ g/f[Gce]/- | [Gce][FG=Bd] [EGc][_B^cg] | %85
 [Bdf]/F/G/^G/ A/f/=G/A/ |1 B2- Bf :|2 B2 !fermata![Bdb]!fine! |] %88
V:2
 (F,/G,/) | A,/FE/- E2 | D/^C/D/B,/- B,2 | B,/A,/B,/G,/- G,/F,/E,/D,/ | C, z !^![C,,C,] z |: %5
 [F,,F,][A,CF] C,[A,CF] | C,[B,CE] F,[A,CF] | [G,,G,][B,CE] [G,,G,][^G,,^G,] | %8
 [A,,A,][C,C] [B,,B,][A,,A,] | [F,,F,][A,CF] C,[A,CF] | C,[CE] F,[^F,A,C^D] | %11
 [G,CE]2 [D,D][G,,G,] | [C,C][_B,,_B,] [A,,A,][G,,G,] | [F,,F,][A,CF] C,[A,CF] | %14
 C,[B,CE] F,[A,CF] | [G,,G,][B,CE] [G,,G,][^G,,^G,] | [A,,A,][C,C] [B,,B,][A,,A,] | %17
 [B,,B,][B,DG] [B,,B,][^G,,^G,] | [A,,A,][A,CF] [A,CF] z | C,[B,CE] E,[G,B,C] |1 %20
 [A,C]2- [A,C] z :|2 [F,A,C] z z2 |: G,[B,CE] C,[B,CE] | E,[B,CE] C,[B,CE] | F,[A,C] C,[B,CE] | %25
 F,[A,CF] C,[A,CF] | G,[B,CE] C,[B,CE] | G,[B,CE] C,[B,CE] | F,[A,CF] C,[A,CF] | %29
 F,[A,CF] C,[A,CF] | ^F,[A,CD] D,[A,CD] | ^F,[A,CD] D,[A,CD] | ^F,[A,CD] D,[A,CD] | %33
 G,[B,D] [B,D] z | [B,,B,][B,DFG] [B,,B,][=B,,=B,] | [C,C][A,CF] C,[A,C] | E,[B,CE] C,[B,CE] |1 %37
 [F,A,C] z z2 :|2 [A,C]2- [A,C] z || [F,,F,][A,CF] C,[A,CF] | C,[B,CE] F,[A,CF] | %41
 [G,,G,][B,CE] [G,,G,][^G,,^G,] | [A,,A,][C,C] [B,,B,][A,,A,] | [F,,F,][A,CF] C,[A,CF] | %44
 C,[CE] F,[^F,A,C^D] | [G,CE]2 [D,D][G,,G,] | [C,C][_B,,_B,] [A,,A,][G,,G,] | %47
 [F,,F,][A,CF] C,[A,CF] | C,[B,CE] F,[A,CF] | [G,,G,][B,CE] [G,,G,][^G,,^G,] | %50
 [A,,A,][C,C] [B,,B,][A,,A,] | [B,,B,][B,DG] [B,,B,][^G,,^G,] | [A,,A,][A,CF] [A,CF] z | %53
 C,[B,CE] E,[E,B,C] | [A,C]2- [A,C] z |:[K:Bb] B,,[F,B,D] F,,[F,B,D] | C,[F,A,E] F,,[F,A,E] | %57
 C,[F,CE] F,,[F,A,E] | B,,[F,B,D] F,,[F,B,D] | [B,,B,][F,B,D] [D,D][_D,_D] | %60
 [C,C][F,A,E] F,,[F,A,E] | C,[F,A,E] F,,[F,A,E] | B,,[F,B,D] F,,[F,B,D] | B,,[F,B,D] F,,[F,B,D] | %64
 C,[F,A,E] F,,[F,A,E] | C,[F,CE] F,,[F,A,E] | B,,[F,B,D] F,,[F,B,D] | %67
 [E,,E,][G,B,E] [G,,G,][_G,,_G,] | [F,,F,][F,B,D] F,,[F,B,D] | C,[F,A,E] F,,[F,A,E] | %70
 B,,[F,B,D] [F,B,D] z :: [B,,B,][F,B,D] [D,D][_D,_D] | [C,C][F,A,E] F,,[F,A,E] | %73
 [B,,B,][F,B,D] [D,D][_D,_D] | [C,C][F,,F,] [A,,A,][_A,,_A,] | [G,,G,][G,=B,DF] =B,,[G,DF] | %76
 [C,,C,][D,,D,] [E,,E,][E,G,C] | [C,,C,][G,B,C] [=E,,=E,][G,B,C] | [F,,F,][F,C_E] F,,[F,A,E] | %79
 B,,[F,B,D] [D,D][_D,_D] | [C,C][F,A,E] F,,[F,A,E] | [B,,B,][F,B,D] [D,D][_D,_D] | %82
 [C,C][F,,F,] [A,,A,][_A,,_A,] | [G,,G,][G,=B,DF] =B,,[G,DF] | [C,,C,][D,,D,] [E,,E,][=E,,=E,] | %85
 [F,,F,][F,B,D] F,,[F,A,E] |1 B,,[F,B,D] [F,B,D] z :|2 D2 x |] %88
V:3
 x | x4 | x4 | x4 | x4 |: x4 | C,2 F,2 | x4 | x4 | x4 | C,2 x2 | x4 | x4 | x4 | x4 | x4 | x4 | x4 | %18
 x4 | x4 |1 F,!^![C,,C,] !^![D,,D,]!^![E,,E,] :|2 x4 |: x4 | x4 | x4 | x4 | x4 | x4 | x4 | x4 | %30
 x4 | x4 | x4 | x4 | x4 | x4 | x4 |1 x4 :|2 F,[C,,C,] [D,,D,][E,,E,] || x4 | C,2 F,2 | x4 | x4 | %43
 x4 | C,2 x2 | x4 | x4 | x4 | x4 | x4 | x4 | x4 | x4 | x4 | F,!^!C,!^!F,, x |:[K:Bb] x4 | x4 | x4 | %58
 x4 | x4 | x4 | x4 | x4 | x4 | x4 | x4 | x4 | x4 | x4 | x4 | x4 :: x4 | x4 | x4 | x4 | x4 | x4 | %77
 x4 | x4 | x4 | x4 | x4 | x4 | x4 | x4 | x4 |1 x4 :|2 B,[F,,F,] [B,,,B,,] |] %88
V:4
 x | x4 | x4 | x4 | x4 |: x4 | x4 | x4 | x4 | x4 | x4 | x4 | x4 | x4 | x4 | x4 | x4 | x4 | x4 | %19
 x4 |1 x4 :|2 x4 |: x4 | x4 | x4 | x4 | !^!B4 | x4 | !^!A4 | x4 | x4 | x4 | x4 | x4 | x4 | x4 | %36
 x4 |1 x4 :|2 x4 || x4 | x4 | x4 | x4 | x4 | x4 | x4 | x4 | x4 | x4 | x4 | x4 | x4 | x4 | x4 | %54
 x4 |:[K:Bb] x4 | x4 | x4 | x4 | x4 | x4 | x4 | x4 | x4 | x4 | x4 | x4 | x4 | B4 | x4 | x4 :: x4 | %72
 x4 | x4 | x4 | x4 | x4 | x4 | x4 | x4 | x4 | x4 | x4 | x4 | x4 | x4 |1 x4 :|2 x3 |] %88

